cloud_bg.svg

<?xml version="1.0" encoding="UTF-8"?>
<svg width="1320px" height="765px" viewBox="0 0 1320 765" version="1.1" xmlns="http://www.w3.org/2000/svg" xmlns:xlink="http://www.w3.org/1999/xlink" jetway-hooks="{}">
    <!-- Generator: Sketch 61.2 (89653) - https://sketch.com -->
    <title>Cloud bg </title>
    <desc>Created with Sketch.</desc>
    <defs>
        <path d="M107.600647,72.7905252 C117.507564,59.3187879 125.051652,50.5092415 130.232911,46.361886 C149.316731,31.0861809 167.437804,27.4924083 179.969028,27.8061393 C206.42088,28.4683861 241.880992,52.6209247 253.63729,76.4466893 C261.474823,92.3305323 264.082353,105.012985 261.459882,114.494047 C274.313044,113.622941 284.389957,118.66967 291.69062,129.634236 C302.641614,146.081085 296.773999,169.586587 293.103455,177.162584 C291.272617,180.941432 286.697077,185.607378 279.376835,191.160423 L279.376835,191.160424 C275.028492,194.459024 269.752358,196.305573 264.296058,196.438418 C140.026904,199.46401 70.5177461,200.439727 55.7685842,199.365569 C33.175732,197.720166 27.4435985,187.082027 21.3951297,179.609008 C16.4792414,173.535317 9.98566997,148.793617 21.1666617,127.638342 C28.6206562,113.534826 39.3854597,105.160877 53.4610722,102.516496 C55.0099981,96.2573797 57.410162,90.5884733 60.6615639,85.5097768 C65.5386666,77.891732 71.9297714,73.5502341 75.9732095,71.2855709 C82.4182262,67.675823 92.9607053,68.1774744 107.600647,72.7905252 Z" id="path-1"></path>
        <filter x="-1.2%" y="-1.5%" width="102.5%" height="104.1%" filterUnits="objectBoundingBox" id="filter-2">
            <feOffset dx="0" dy="1" in="SourceAlpha" result="shadowOffsetOuter1"></feOffset>
            <feGaussianBlur stdDeviation="1" in="shadowOffsetOuter1" result="shadowBlurOuter1"></feGaussianBlur>
            <feColorMatrix values="0 0 0 0 0   0 0 0 0 0   0 0 0 0 0  0 0 0 0.08 0" type="matrix" in="shadowBlurOuter1"></feColorMatrix>
        </filter>
        <path d="M1201.18501,639.200054 C1209.65664,627.764742 1216.10777,620.286871 1220.53839,616.766441 C1236.85742,603.799854 1252.35317,600.749326 1263.06892,601.015633 C1285.68853,601.577773 1316.01131,622.079346 1326.0644,642.303542 C1332.76646,655.786339 1334.99622,666.551676 1332.75368,674.599554 C1343.74472,673.860127 1352.36173,678.143979 1358.6047,687.451111 C1367.96915,701.411808 1362.95162,721.364152 1359.81285,727.794941 C1358.35281,730.786307 1354.85152,734.432563 1349.30899,738.733708 C1344.91851,742.140828 1339.55184,744.051514 1333.99605,744.185549 C1228.47229,746.731354 1169.42766,747.550057 1156.86218,746.64166 C1137.5425,745.244982 1132.64082,736.214933 1127.46863,729.871556 C1123.26493,724.715982 1117.71213,703.714306 1127.27326,685.756921 C1133.64735,673.785332 1142.85258,666.677213 1154.88897,664.432564 C1156.2135,659.119593 1158.26593,654.307614 1161.04628,649.996628 C1165.21681,643.530148 1170.682,639.844923 1174.13963,637.922592 C1179.65092,634.858504 1188.66604,635.284324 1201.18501,639.200054 Z" id="path-3"></path>
        <filter x="-1.4%" y="-1.7%" width="102.9%" height="104.8%" filterUnits="objectBoundingBox" id="filter-4">
            <feOffset dx="0" dy="1" in="SourceAlpha" result="shadowOffsetOuter1"></feOffset>
            <feGaussianBlur stdDeviation="1" in="shadowOffsetOuter1" result="shadowBlurOuter1"></feGaussianBlur>
            <feColorMatrix values="0 0 0 0 0   0 0 0 0 0   0 0 0 0 0  0 0 0 0.08 0" type="matrix" in="shadowBlurOuter1"></feColorMatrix>
        </filter>
        <path d="M147.280252,153.210997 C153.301417,145.065295 157.886516,139.738593 161.03555,137.23089 C172.634197,127.994417 183.647711,125.821438 191.263862,126.011136 C207.340605,126.411564 228.892334,141.015425 236.037505,155.421701 C240.800952,165.025885 242.385741,172.694345 240.791872,178.42708 C248.603688,177.900364 254.728172,180.951876 259.165324,187.581613 C265.821051,197.526219 262.254869,211.738848 260.024008,216.319684 C260.024008,216.319684 260.024008,216.319684 260.024008,216.319684 C256.624067,223.301102 249.614016,227.803168 241.850992,227.990942 C166.74021,229.807722 124.715906,230.392328 115.778079,229.744744 C102.046735,228.74985 98.5628938,222.317487 94.8867926,217.798917 C91.8990442,214.126453 87.9524213,199.166355 94.7479358,186.374793 C99.2782787,177.847086 105.820845,172.783768 114.375634,171.18484 C115.317031,167.400258 116.775788,163.972547 118.751905,160.901707 C121.71608,156.295448 125.600426,153.670356 128.057922,152.301025 C131.975035,150.118386 138.382478,150.421711 147.280252,153.210997 Z" id="path-5"></path>
        <filter x="-2.0%" y="-2.4%" width="104.1%" height="106.7%" filterUnits="objectBoundingBox" id="filter-6">
            <feOffset dx="0" dy="1" in="SourceAlpha" result="shadowOffsetOuter1"></feOffset>
            <feGaussianBlur stdDeviation="1" in="shadowOffsetOuter1" result="shadowBlurOuter1"></feGaussianBlur>
            <feColorMatrix values="0 0 0 0 0   0 0 0 0 0   0 0 0 0 0  0 0 0 0.08 0" type="matrix" in="shadowBlurOuter1"></feColorMatrix>
        </filter>
    </defs>
    <g jetway-hook-id="F0A61EA6-194B-49B9-8832-A76D2240DB7B" id="Cloud-bg-" stroke="none" stroke-width="1" fill="none" fill-rule="evenodd">
        <rect fill="#FFFFFF" x="0" y="0" width="1320" height="765"></rect>
        <g jetway-hook-id="DA55ABE1-5337-487C-8583-4DDA23D739BD" id="Group-6" transform="translate(499.000000, 63.000000)">
            <path d="M100.780916,49.9768324 C111.563002,35.2519103 119.773529,25.6228712 125.412497,21.0897152 C146.182167,4.39301426 165.904041,0.464937243 179.542264,0.807852452 C208.330852,1.53170367 246.923482,27.9309901 259.718323,53.9731048 C268.248217,71.3345146 271.086095,85.1967301 268.231956,95.5597513 C282.220557,94.607612 293.187657,100.123805 301.133254,112.108331 C313.05165,130.085119 306.665695,155.777179 302.670898,164.05792 C300.620087,168.30901 295.404941,173.587226 287.025461,179.89257 L287.025461,179.892569 C282.692814,183.152775 277.449291,184.976833 272.028666,185.109487 C136.336413,188.430161 60.4502078,189.502432 44.3700492,188.326299 C19.781362,186.527836 13.5428563,174.900102 6.96007049,166.731918 C1.60991638,160.093233 -5.45729205,133.049979 6.71141984,109.926772 C14.8238944,94.5113003 26.5396523,85.3583797 41.8586934,82.4680097 C43.5444503,75.6266501 46.1566428,69.4304036 49.6952709,63.8792702 C55.0032131,55.5525701 61.9589032,50.807212 66.3595354,48.3318824 C73.3738999,44.386344 84.8476934,44.9346606 100.780916,49.9768324 Z" jetway-hook-id="47BA5E92-20AB-4BED-8DA2-C96178A6C6A0" id="Path-3-Copy" fill="#F3F2F2"></path>
            <g jetway-hook-id="4E63697E-D4F7-4FAC-BF5E-65417C4C7966" id="Path-3-Copy-2">
                <use fill="black" fill-opacity="1" filter="url(#filter-2)" xlink:href="#path-1"></use>
                <use fill="#FFFFFF" fill-rule="evenodd" xlink:href="#path-1"></use>
            </g>
        </g>
        <path d="M1171.49044,568.880889 C1182.02748,554.547587 1190.0514,545.17464 1195.56221,540.762046 C1215.85984,524.509406 1235.13349,520.6858 1248.46176,521.019595 C1276.59606,521.724195 1314.31159,547.421372 1326.81563,572.770878 C1335.15167,589.670548 1337.92505,603.164087 1335.13578,613.251496 C1348.80645,612.32468 1359.5243,617.694166 1367.28932,629.359954 C1378.93684,646.858636 1372.69602,671.867397 1368.79201,679.927905 C1366.8017,684.037255 1361.76169,689.132603 1353.67198,695.21395 L1353.67198,695.213949 C1349.34041,698.470151 1344.09968,700.291561 1338.68231,700.423585 C1206.17675,703.652808 1132.06986,704.695229 1116.36164,703.550848 C1092.33179,701.800217 1086.23506,690.481731 1079.80189,682.530786 C1074.57333,676.068662 1067.66674,649.744643 1079.55889,627.236415 C1087.48699,612.23093 1098.93648,603.321438 1113.90736,600.507939 C1115.5548,593.848531 1118.10763,587.817078 1121.56583,582.413581 C1126.75314,574.308336 1133.55075,569.689184 1137.85136,567.279688 C1144.70631,563.439084 1155.91934,563.972818 1171.49044,568.880889 Z" jetway-hook-id="F4139897-3DB3-4C0C-9D1E-91612516FF2E" id="Path-3-Copy-8" fill="#F3F2F2"></path>
        <g jetway-hook-id="5BA9E6CA-109F-471F-A35E-1A295CC41A3A" id="Path-3-Copy-5">
            <use fill="black" fill-opacity="1" filter="url(#filter-4)" xlink:href="#path-3"></use>
            <use fill="#FFFFFF" fill-rule="evenodd" xlink:href="#path-3"></use>
        </g>
        <path d="M115.695893,105.013746 C123.152336,94.8316193 128.830395,88.1732412 132.730071,85.0386121 C147.093511,73.493021 160.73234,70.7767975 170.163968,71.0139197 C190.072959,71.5144552 216.762019,89.7692809 225.610399,107.777126 C231.509319,119.782356 233.471877,129.367931 231.498073,136.53385 C241.172009,135.875456 248.756399,139.689844 254.251244,147.977016 C262.493511,160.407774 258.07725,178.17356 255.314615,183.899605 C255.314615,183.899605 255.314615,183.899605 255.314615,183.899605 C251.106588,192.621475 242.371793,198.255253 232.690746,198.491571 C139.750207,200.760275 87.7481192,201.490065 76.6844821,200.68093 C59.6799679,199.437312 55.3656766,191.396858 50.8132955,185.748646 C47.1133513,181.158066 42.2259636,162.457943 50.641339,146.468492 C56.2515893,135.808857 64.3537206,129.47971 74.9477328,127.48105 C76.1135322,122.750322 77.920016,118.465684 80.3671841,114.627134 C84.0379363,108.86931 88.8482025,105.587945 91.8914969,103.876281 C96.7423399,101.147983 104.677139,101.527138 115.695893,105.013746 Z" jetway-hook-id="E3A8E720-18CC-48C5-9CE1-1E7F5FB1D87E" id="Path-3-Copy-10" fill="#F3F2F2" transform="translate(152.500000, 136.000000) scale(-1, 1) translate(-152.500000, -136.000000) "></path>
        <g jetway-hook-id="4E42458E-C832-4310-B934-2C31E4D2469B" id="Path-3-Copy-9" transform="translate(177.000000, 178.000000) scale(-1, 1) translate(-177.000000, -178.000000) ">
            <use fill="black" fill-opacity="1" filter="url(#filter-6)" xlink:href="#path-5"></use>
            <use fill="#FFFFFF" fill-rule="evenodd" xlink:href="#path-5"></use>
        </g>
        <path d="M1088.81292,387.605499 C1091.78849,383.532648 1094.05438,380.869296 1095.61059,379.615445 C1101.34248,374.997208 1106.78521,373.910719 1110.549,374.005568 C1118.4939,374.205782 1129.14447,381.507712 1132.67551,388.71085 C1135.02954,393.512943 1135.81272,397.347172 1135.02505,400.21354 C1138.88554,399.950182 1141.91218,401.475938 1144.10496,404.790807 C1147.39412,409.76311 1145.63177,416.869424 1144.52931,419.159842 C1144.52931,419.159842 1144.52931,419.159842 1144.52931,419.159842 C1142.85029,422.648089 1139.35915,424.902218 1135.48901,424.996907 C1098.40758,425.904173 1077.65957,426.195991 1073.24498,425.872372 C1066.45914,425.374925 1064.73748,422.158743 1062.9208,419.899458 C1061.4443,418.063226 1059.49393,410.583177 1062.85218,404.187397 C1065.09101,399.923543 1068.32425,397.391884 1072.55191,396.59242 C1073.01714,394.700129 1073.73803,392.986274 1074.7146,391.450854 C1076.17946,389.147724 1078.09905,387.835178 1079.31351,387.150512 C1081.24929,386.059193 1084.41576,386.210855 1088.81292,387.605499 Z" jetway-hook-id="AF140E50-8FD6-42B4-B940-C4792FF60F6E" id="Path-3-Copy-6" fill="#F3F2F2"></path>
        <path d="M1152.95304,168.210997 C1158.9392,160.065295 1163.49764,154.738593 1166.62837,152.23089 C1178.15958,142.994417 1189.10906,140.821438 1196.68093,141.011136 C1212.66421,141.411564 1234.09063,156.015425 1241.19426,170.421701 C1245.93002,180.025885 1247.50559,187.694345 1245.92099,193.42708 C1253.68739,192.900364 1259.77626,195.951876 1264.18762,202.581613 C1270.80465,212.526219 1267.2592,226.738848 1265.04131,231.319684 C1265.04131,231.319684 1265.04131,231.319684 1265.04131,231.319684 C1261.66232,238.298656 1254.66616,242.803816 1246.91451,242.992387 C1172.27769,244.808032 1130.51753,245.392156 1121.63402,244.744744 C1107.98251,243.74985 1104.51892,237.317487 1100.86419,232.798917 C1097.89382,229.126453 1093.97014,214.166355 1100.72615,201.374793 C1105.23015,192.847086 1111.73468,187.783768 1120.23973,186.18484 C1121.17565,182.400258 1122.62593,178.972547 1124.59056,175.901707 C1127.5375,171.295448 1131.39926,168.670356 1133.84247,167.301025 C1137.73681,165.118386 1144.107,165.421711 1152.95304,168.210997 Z" jetway-hook-id="07998AF6-18C8-4D2B-A54E-6B1A08C57548" id="Path-3-Copy-7" fill="#F3F2F2"></path>
        <path d="M19.9829607,548.694582 C29.6098235,535.614465 36.9406511,527.06101 41.9754436,523.034217 C60.5197918,508.202573 78.128608,504.713271 90.3055929,505.017882 C116.009689,505.660877 150.467395,529.111307 161.89136,552.244462 C169.507337,567.666565 172.041156,579.980342 169.492818,589.185792 C181.98264,588.340008 191.774693,593.240031 198.868977,603.885859 C209.510402,619.854602 203.808656,642.676805 200.241874,650.032569 C198.482364,653.661201 194.114105,658.132295 187.137098,663.445851 L187.137098,663.445851 C182.78142,666.763054 177.489729,668.620603 172.016334,668.753714 C51.4058791,671.686914 -16.0608605,672.632382 -30.3838846,671.590118 C-52.3380696,669.992547 -57.908164,659.663656 -63.7856514,652.407876 C-68.5625747,646.510746 -74.8725822,622.488281 -64.0076609,601.947985 C-56.76438,588.254455 -46.3038819,580.123935 -32.6261666,577.556425 C-31.1210265,571.47926 -28.7887118,565.975148 -25.6292224,561.044088 C-20.8899883,553.647498 -14.6795507,549.432206 -10.7504148,547.233376 C-4.48758938,543.728563 5.75686911,544.215631 19.9829607,548.694582 Z" jetway-hook-id="1DACE8E6-EA1A-4115-8996-AAFCD2EAB663" id="Path-3-Copy-11" fill="#F3F2F2"></path>
        <path d="M198.959857,311.680835 C201.09527,308.782845 202.721381,306.887769 203.838189,305.995605 C207.951663,302.709552 211.857618,301.936473 214.558695,302.003962 C220.260331,302.146422 227.903677,307.342026 230.43772,312.467336 C232.127082,315.884209 232.689129,318.612411 232.123861,320.651942 C234.894331,320.464553 237.066387,321.550186 238.640028,323.908843 C241.000489,327.446828 239.735738,332.503244 238.944561,334.132964 C238.944561,334.132964 238.944561,334.132964 238.944561,334.132964 C237.738996,336.616269 235.247706,338.21856 232.48805,338.285517 C205.85709,338.931653 190.956932,339.139545 187.787575,338.909188 C182.917737,338.555235 181.682189,336.266798 180.378456,334.65923 C179.318847,333.35268 177.919173,328.030338 180.32921,323.479494 C181.935901,320.445598 184.25623,318.644225 187.290196,318.075376 C187.624063,316.728938 188.141413,315.509464 188.842245,314.416954 C189.893494,312.778188 191.271081,311.844261 192.142635,311.357095 C193.531844,310.58058 195.804251,310.688493 198.959857,311.680835 Z" jetway-hook-id="D42C62D1-8894-4DE5-8AC4-04344DB6C845" id="Path-3" fill="#F3F2F2"></path>
    </g>
</svg>

<svg xmlns="http://www.w3.org/2000/svg" xmlns:xlink="http://www.w3.org/1999/xlink" viewBox="0 0 1320 765"><defs><path id="b" d="M107.6 72.79c9.908-13.471 17.452-22.28 22.633-26.428 19.084-15.276 37.205-18.87 49.736-18.556 26.452.662 61.912 24.815 73.668 48.64 7.838 15.885 10.445 28.567 7.823 38.048 12.853-.871 22.93 4.176 30.23 15.14 10.952 16.447 5.084 39.953 1.413 47.529-1.83 3.778-6.406 8.444-13.726 13.997a26 26 0 0 1-15.08 5.278c-124.27 3.026-193.78 4.002-208.528 2.928-22.593-1.646-28.325-12.284-34.374-19.757-4.916-6.074-11.41-30.815-.228-51.97 7.454-14.104 18.218-22.478 32.294-25.123 1.549-6.259 3.95-11.928 7.2-17.006 4.878-7.618 11.269-11.96 15.312-14.224 6.445-3.61 16.988-3.109 31.628 1.505z"/><filter id="a" width="102.5%" height="104.1%" x="-1.2%" y="-1.5%" filterUnits="objectBoundingBox"><feOffset dy="1" in="SourceAlpha" result="shadowOffsetOuter1"/><feGaussianBlur in="shadowOffsetOuter1" result="shadowBlurOuter1" stdDeviation="1"/><feColorMatrix in="shadowBlurOuter1" values="0 0 0 0 0 0 0 0 0 0 0 0 0 0 0 0 0 0 0.08 0"/></filter><path id="d" d="M1201.185 639.2c8.472-11.435 14.923-18.913 19.353-22.434 16.32-12.966 31.815-16.017 42.53-15.75 22.62.562 52.943 21.063 62.996 41.288 6.702 13.482 8.932 24.248 6.69 32.296 10.99-.74 19.608 3.544 25.85 12.851 9.365 13.96 4.348 33.913 1.209 40.344-1.46 2.991-4.961 6.638-10.504 10.939a26 26 0 0 1-15.313 5.452c-105.524 2.545-164.568 3.364-177.134 2.456-19.32-1.397-24.221-10.427-29.393-16.77-4.204-5.156-9.757-26.158-.196-44.115 6.374-11.972 15.58-19.08 27.616-21.324 1.325-5.313 3.377-10.125 6.157-14.436 4.17-6.467 9.636-10.152 13.094-12.074 5.51-3.064 14.526-2.639 27.045 1.277z"/><filter id="c" width="102.9%" height="104.8%" x="-1.4%" y="-1.7%" filterUnits="objectBoundingBox"><feOffset dy="1" in="SourceAlpha" result="shadowOffsetOuter1"/><feGaussianBlur in="shadowOffsetOuter1" result="shadowBlurOuter1" stdDeviation="1"/><feColorMatrix in="shadowBlurOuter1" values="0 0 0 0 0 0 0 0 0 0 0 0 0 0 0 0 0 0 0.08 0"/></filter><path id="f" d="M147.28 153.211c6.021-8.146 10.607-13.472 13.756-15.98 11.598-9.237 22.612-11.41 30.228-11.22 16.077.4 37.628 15.004 44.774 29.41 4.763 9.605 6.348 17.273 4.754 23.006 7.812-.527 13.936 2.525 18.373 9.155 6.656 9.944 3.09 24.157.859 28.738a20.772 20.772 0 0 1-18.173 11.67c-75.11 1.818-117.135 2.402-126.073 1.755-13.731-.995-17.215-7.428-20.891-11.946-2.988-3.673-6.935-18.633-.14-31.424 4.531-8.528 11.074-13.591 19.629-15.19.941-3.785 2.4-7.212 4.376-10.283 2.964-4.607 6.848-7.232 9.306-8.601 3.917-2.183 10.324-1.88 19.222.91z"/><filter id="e" width="104.1%" height="106.7%" x="-2%" y="-2.4%" filterUnits="objectBoundingBox"><feOffset dy="1" in="SourceAlpha" result="shadowOffsetOuter1"/><feGaussianBlur in="shadowOffsetOuter1" result="shadowBlurOuter1" stdDeviation="1"/><feColorMatrix in="shadowBlurOuter1" values="0 0 0 0 0 0 0 0 0 0 0 0 0 0 0 0 0 0 0.08 0"/></filter></defs><g fill="none" fill-rule="evenodd"><path fill="#FFF" d="M0 0h1320v765H0z"/><path fill="#F3F2F2" d="M599.78 112.977c10.783-14.725 18.994-24.354 24.632-28.887 20.77-16.697 40.492-20.625 54.13-20.282 28.789.724 67.381 27.123 80.176 53.165 8.53 17.362 11.368 31.224 8.514 41.587 13.989-.952 24.956 4.564 32.901 16.548 11.919 17.977 5.533 43.67 1.538 51.95-2.05 4.251-7.266 9.53-15.646 15.835a26 26 0 0 1-14.996 5.216c-135.693 3.321-211.579 4.393-227.659 3.217-24.589-1.798-30.827-13.426-37.41-21.594-5.35-6.639-12.417-33.682-.249-56.805 8.113-15.416 19.829-24.569 35.148-27.459 1.685-6.841 4.298-13.038 7.836-18.589 5.308-8.326 12.264-13.072 16.665-15.547 7.014-3.946 18.488-3.397 34.42 1.645z"/><g transform="translate(499 63)"><use fill="#000" filter="url(#a)" xlink:href="#b"/><use fill="#FFF" xlink:href="#b"/></g><path fill="#F3F2F2" d="M1171.49 568.88c10.537-14.332 18.561-23.705 24.072-28.118 20.298-16.253 39.571-20.076 52.9-19.742 28.134.704 65.85 26.401 78.354 51.75 8.336 16.9 11.11 30.394 8.32 40.481 13.67-.926 24.388 4.443 32.153 16.109 11.648 17.499 5.407 42.507 1.503 50.568-1.99 4.11-7.03 9.205-15.12 15.286a26 26 0 0 1-14.99 5.21c-132.505 3.229-206.612 4.271-222.32 3.127-24.03-1.75-30.127-13.07-36.56-21.02-5.229-6.462-12.135-32.786-.243-55.295 7.928-15.005 19.377-23.915 34.348-26.728 1.648-6.66 4.2-12.69 7.659-18.094 5.187-8.106 11.985-12.725 16.285-15.134 6.855-3.84 18.068-3.307 33.64 1.6z"/><use fill="#000" filter="url(#c)" xlink:href="#d"/><use fill="#FFF" xlink:href="#d"/><path fill="#F3F2F2" d="M189.304 105.014c-7.456-10.182-13.134-16.84-17.034-19.975-14.364-11.546-28.002-14.262-37.434-14.025-19.909.5-46.598 18.755-55.446 36.763-5.9 12.005-7.862 21.59-5.888 28.757-9.674-.659-17.258 3.156-22.753 11.443-8.243 12.43-3.826 30.197-1.064 35.923a25.819 25.819 0 0 0 22.624 14.592c92.94 2.268 144.943 2.998 156.007 2.189 17.004-1.244 21.318-9.284 25.87-14.932 3.7-4.59 8.588-23.291.173-39.28-5.61-10.66-13.713-16.99-24.307-18.988-1.166-4.73-2.972-9.015-5.42-12.854-3.67-5.758-8.48-9.04-11.523-10.75-4.851-2.729-12.786-2.35-23.805 1.137z"/><g transform="matrix(-1 0 0 1 354 0)"><use fill="#000" filter="url(#e)" xlink:href="#f"/><use fill="#FFF" xlink:href="#f"/></g><path fill="#F3F2F2" d="M1088.813 387.605c2.975-4.072 5.241-6.736 6.798-7.99 5.731-4.618 11.174-5.704 14.938-5.61 7.945.2 18.595 7.503 22.127 14.706 2.354 4.802 3.137 8.636 2.35 11.503 3.86-.264 6.886 1.262 9.079 4.577 3.29 4.972 1.527 12.078.424 14.369a10.313 10.313 0 0 1-9.04 5.837c-37.081.907-57.83 1.199-62.244.875-6.786-.497-8.508-3.713-10.324-5.973-1.477-1.836-3.427-9.316-.069-15.712 2.239-4.263 5.472-6.795 9.7-7.595.465-1.892 1.186-3.606 2.163-5.141 1.464-2.303 3.384-3.616 4.599-4.3 1.935-1.092 5.102-.94 9.499.454zM1152.953 168.211c5.986-8.146 10.545-13.472 13.675-15.98 11.532-9.237 22.481-11.41 30.053-11.22 15.983.4 37.41 15.004 44.513 29.41 4.736 9.605 6.312 17.273 4.727 23.006 7.766-.527 13.855 2.525 18.267 9.155 6.617 9.944 3.071 24.157.853 28.738a20.699 20.699 0 0 1-18.126 11.672c-74.637 1.816-116.397 2.4-125.281 1.753-13.651-.995-17.115-7.428-20.77-11.946-2.97-3.673-6.894-18.633-.138-31.424 4.504-8.528 11.009-13.591 19.514-15.19.936-3.785 2.386-7.212 4.35-10.283 2.947-4.607 6.81-7.232 9.252-8.601 3.895-2.183 10.265-1.88 19.111.91zM19.983 548.695c9.627-13.08 16.958-21.634 21.992-25.66 18.545-14.832 36.154-18.322 48.33-18.017 25.705.643 60.162 24.093 71.586 47.226 7.616 15.423 10.15 27.736 7.602 36.942 12.49-.846 22.282 4.054 29.376 14.7 10.641 15.969 4.94 38.79 1.373 46.147-1.76 3.628-6.128 8.1-13.105 13.413a26 26 0 0 1-15.12 5.308c-120.611 2.933-188.078 3.878-202.4 2.836-21.955-1.597-27.525-11.926-33.403-19.182-4.777-5.897-11.087-29.92-.222-50.46 7.244-13.694 17.704-21.824 31.382-24.392 1.505-6.077 3.837-11.58 6.997-16.512 4.739-7.397 10.95-11.612 14.879-13.81 6.262-3.505 16.507-3.018 30.733 1.46zM198.96 311.68c2.135-2.897 3.761-4.792 4.878-5.684 4.114-3.286 8.02-4.06 10.72-3.992 5.702.142 13.346 5.338 15.88 10.463 1.69 3.417 2.251 6.145 1.686 8.185 2.77-.187 4.942.898 6.516 3.257 2.36 3.538 1.096 8.594.305 10.224a7.376 7.376 0 0 1-6.457 4.153c-26.63.646-41.531.854-44.7.623-4.87-.354-6.106-2.642-7.41-4.25-1.06-1.306-2.459-6.629-.049-11.18 1.607-3.033 3.927-4.835 6.961-5.404a12.125 12.125 0 0 1 1.552-3.658c1.051-1.639 2.43-2.573 3.3-3.06 1.39-.776 3.662-.669 6.818.324z"/></g></svg>
